svg/fluentui-system-icons/ic_fluent_slide_link_24_regular.svg

<svg width="24" height="24" viewBox="0 0 24 24" fill="none" xmlns="http://www.w3.org/2000/svg">
<path d="M2 6.25C2 5.00736 3.00736 4 4.25 4H19.75C20.9926 4 22 5.00736 22 6.25V13.3766C21.5515 13.0576 21.0453 12.8145 20.5 12.6662V6.25C20.5 5.83579 20.1642 5.5 19.75 5.5H4.25C3.83579 5.5 3.5 5.83579 3.5 6.25V17.75C3.5 18.1642 3.83579 18.5 4.25 18.5H11.1662C11.3145 19.0453 11.5576 19.5515 11.8766 20H4.25C3.00736 20 2 18.9926 2 17.75V6.25ZM23 17.25C23 15.1789 21.3211 13.5 19.25 13.5L19.1482 13.5068C18.7822 13.5565 18.5 13.8703 18.5 14.25C18.5 14.6642 18.8358 15 19.25 15L19.404 15.0052C20.5748 15.0844 21.5 16.0591 21.5 17.25C21.5 18.4926 20.4926 19.5 19.25 19.5L19.2466 19.5046L19.1448 19.5119C18.779 19.5633 18.4983 19.8783 18.5 20.258C18.5019 20.6722 18.8392 21.0065 19.2534 21.0046V21L19.4523 20.9948C21.4276 20.8913 23 19.2543 23 17.25ZM16.5 14.25C16.5 13.8358 16.1642 13.5 15.75 13.5L15.5508 13.5052C13.5724 13.6087 12 15.2457 12 17.25C12 19.3211 13.6789 21 15.75 21L15.8518 20.9932C16.2178 20.9435 16.5 20.6297 16.5 20.25C16.5 19.8358 16.1642 19.5 15.75 19.5L15.596 19.4948C14.4252 19.4156 13.5 18.4409 13.5 17.25C13.5 16.0074 14.5074 15 15.75 15L15.8518 14.9932C16.2178 14.9435 16.5 14.6297 16.5 14.25ZM20 17.25C20 16.8358 19.6642 16.5 19.25 16.5H15.75L15.6482 16.5068C15.2822 16.5565 15 16.8703 15 17.25C15 17.6642 15.3358 18 15.75 18H19.25L19.3518 17.9932C19.7178 17.9435 20 17.6297 20 17.25Z" fill="#212121"/>
</svg>

<svg xmlns="http://www.w3.org/2000/svg" width="24" height="24"><path d="M2 6.25A2.25 2.25 0 0 1 4.25 4h15.5A2.25 2.25 0 0 1 22 6.25v7.127a4.728 4.728 0 0 0-1.5-.71V6.25a.75.75 0 0 0-.75-.75H4.25a.75.75 0 0 0-.75.75v11.5c0 .414.336.75.75.75h6.916c.149.545.392 1.052.71 1.5H4.25A2.25 2.25 0 0 1 2 17.75V6.25Zm21 11a3.75 3.75 0 0 0-3.75-3.75l-.102.007A.75.75 0 0 0 19.25 15l.154.005a2.25 2.25 0 0 1-.154 4.495l-.003.005-.102.007a.75.75 0 0 0 .108 1.493V21l.2-.005A3.75 3.75 0 0 0 23 17.25Zm-6.5-3a.75.75 0 0 0-.75-.75l-.2.005a3.75 3.75 0 0 0 .2 7.495l.102-.007a.75.75 0 0 0-.102-1.493l-.154-.005A2.25 2.25 0 0 1 15.75 15l.102-.007a.75.75 0 0 0 .648-.743Zm3.5 3a.75.75 0 0 0-.75-.75h-3.5l-.102.007A.75.75 0 0 0 15.75 18h3.5l.102-.007A.75.75 0 0 0 20 17.25Z"/></svg>
